build/img/icons/arhive/mail.svg

<svg version="1.1" xmlns="http://www.w3.org/2000/svg" width="800" height="640" viewBox="0 0 800 640">
<title>phon</title>
<path fill="#dddddd" d="M720 64c44.2 0 80 28.7 80 64v0 384c0 35.3-35.8 64-80 64v0h-640c-44.2 0-80-28.7-80-64v0-384c0-35.2 36-64 80-64h640zM545.2 355.2l254.8 156.8v-64l-204.8-124.8 204.8-131.2v-64l-400 256-400-256v64l204.8 131.2-204.8 124.8v64l254.8-156.8 145.2 92.8 145.2-92.8z"></path>
</svg>

<svg xmlns="http://www.w3.org/2000/svg" width="800" height="640"><path fill="#ddd" d="M720 64c44.2 0 80 28.7 80 64v384c0 35.3-35.8 64-80 64H80c-44.2 0-80-28.7-80-64V128c0-35.2 36-64 80-64h640zM545.2 355.2L800 512v-64L595.2 323.2 800 192v-64L400 384 0 128v64l204.8 131.2L0 448v64l254.8-156.8L400 448l145.2-92.8z"/></svg>
